X:83
T:Con Carthy's Favourite
R:slide
Z:id:hn-slide-83
M:6/8
L:1/8
K:Bm
B2A Bcd | B2A F2A | B2A Bcd | e3 e3 |
B2A Bcd | B2A F2A | A2F D2F | E3 E3 :|
|: f2e d2c | B2A F3 | f2e d2f | e3 efg |
f2e d2c | B2A F2A | A2F D2F | E3 E3 :|
P:variations
|: B2A Bcd | B2A F2A | B2A Bcd | e3 e2d |
B2A Bcd | B2A F2B | AGF d2F | E3 E3 :|
|: f2e dcd | B2A d2e | f2e dcd | e3 e3 |
f2e dcd | B2A d2B | AFA D2F | E3 E3:|

